X:21
T:The Tipparary Reel
R:reel
C:Jerry Holland, SOCAN
O:20th Century Cape Breton
S:Tune ofthe Month, November 1999
D:Here and There, Dennis Ryan (Jerry is the guest fiddler)
A:<http://www.capebretonet.com/Music/Holland>
N:Contacts ...
N:Bookings,Mechanicals etc.
N:..... Jerry Holland <jerry@cranfordpub.com>
N:Tune books, related recordings
N:..... Cranford Publications <http://www.cranfordpub.com>
B:Previously Unpublished
H:Copyrights - Publisher:Fiddlesticks Music (SOCAN).
Z:This abc transcription is for personal use only
Z:provided this notice remains attached.
Z:Used by permission of the composer and publisher.
Z:Paul Stewart Cranford <psc@cranfordpub.com>
L:1/8
Q:333
M:C|
K:G
DG ~G2 D=3DF ~=3DF2|EDCE DCB,A,|G,G (3AGF GABc|(3edc Bd c2 BA|!
DG ~G2 D=3DF ~=3DF2|EDCE DCB,A,|G,G (3AGF GABc|[1(3(dcB) cA G2 GF:|[2(3(dcB)=
 cA
G2:|!
|:Bc|dg ~g2 d=3Df ~=3Df2|edce dcBA|DG (3AGF GABc|[1(3edc Bd c2 Bc|!
"usual end"dg ~g2 d=3Df ~=3Df2|edce dcBA|DG (3AGF GABc|(3(dcB) cA G2:|
[2dcBd c2 BA|"final time end"DG ~G2 D=3DF ~=3DF2|EDCE DCB,A,|G,G (3AGF
GABc|(3(dcB) cA G2 GF|]!

